build/dist/assets/images/services/services-7.svg

<svg width="82" height="65" viewBox="0 0 82 65" fill="none" xmlns="http://www.w3.org/2000/svg">
<path d="M39.6749 17.208H40.9411C41.8707 17.208 42.6301 16.3784 42.6575 15.347C43.5805 15.3164 44.3231 14.4679 44.3231 13.4292V12.0142C44.3231 10.9755 43.5805 10.1269 42.6575 10.0963C42.6301 9.06496 41.8706 8.23535 40.9411 8.23535H39.6749C38.7452 8.23535 37.9859 9.06496 37.9585 10.0963C37.0354 10.1269 36.293 10.9755 36.293 12.0141V13.4291C36.293 14.4678 37.0354 15.3163 37.9585 15.3469C37.9858 16.3784 38.7452 17.208 39.6749 17.208ZM37.7587 13.4291V12.0142C37.7587 11.9398 37.7853 11.8684 37.8324 11.8157C37.8795 11.7631 37.9435 11.7335 38.0101 11.7334H38.6385C39.0714 11.7334 39.4235 11.3399 39.4235 10.8563V10.1541C39.4236 10.0797 39.4501 10.0083 39.4972 9.95563C39.5443 9.90298 39.6082 9.87337 39.6749 9.87328H40.9411C41.0077 9.87337 41.0716 9.90298 41.1187 9.95563C41.1659 10.0083 41.1924 10.0797 41.1924 10.1541V10.8563C41.1924 11.34 41.5445 11.7334 41.9774 11.7334H42.6059C42.6725 11.7335 42.7364 11.7631 42.7836 11.8158C42.8307 11.8685 42.8572 11.9399 42.8573 12.0143V13.4292C42.8572 13.5037 42.8307 13.575 42.7836 13.6277C42.7365 13.6803 42.6726 13.7099 42.606 13.71H41.9774C41.5445 13.71 41.1924 14.1035 41.1924 14.5871V15.2893C41.1924 15.3638 41.1659 15.4352 41.1188 15.4878C41.0716 15.5405 41.0078 15.5702 40.9411 15.5703H39.6749C39.6082 15.5702 39.5443 15.5406 39.4972 15.4879C39.4501 15.4353 39.4236 15.3639 39.4235 15.2894V14.5872C39.4235 14.1035 39.0713 13.7101 38.6385 13.7101H38.0101C37.9434 13.71 37.8795 13.6804 37.8324 13.6277C37.7853 13.575 37.7587 13.5036 37.7587 13.4291Z" fill="#009B97"/>
<path d="M54.9336 41.6516L45.8001 37.8246C45.6827 37.775 45.5816 37.6866 45.5101 37.5714C45.4386 37.4561 45.4001 37.3193 45.3997 37.1791V33.561C47.6427 31.8906 49.2142 29.1799 49.5573 26.0504C51.2983 25.8964 52.6732 24.2652 52.6732 22.2809C52.6732 20.3235 51.3356 18.7089 49.6282 18.5176V10.7975C49.6282 9.32886 48.9312 7.9413 47.8092 7.17633L46.0269 5.96107C45.1051 5.33247 44.046 4.99993 42.9661 5H37.365C36.2851 4.99993 35.226 5.33247 34.3042 5.96107L32.5218 7.17633C31.3998 7.9413 30.7029 9.32886 30.7029 10.7975V18.5083C28.9435 18.6414 27.5484 20.282 27.5484 22.2811C27.5484 24.3071 28.9815 25.966 30.7747 26.0591C31.1197 29.1848 32.6905 31.8921 34.9314 33.561V37.1791C34.931 37.3193 34.8925 37.4561 34.821 37.5714C34.7495 37.6866 34.6484 37.775 34.531 37.8246L25.3976 41.6516C22.1691 43.0045 20 46.5018 20 50.3542V55.3894C20 55.6066 20.0772 55.8149 20.2147 55.9685C20.3521 56.1221 20.5385 56.2084 20.7329 56.2084C20.9273 56.2084 21.1137 56.1221 21.2511 55.9685C21.3886 55.8149 21.4658 55.6066 21.4658 55.3894V50.3542C21.4658 47.1806 23.2527 44.2996 25.9121 43.1852L28.7423 41.9993V47.2397C27.493 47.6036 26.5681 48.8749 26.5681 50.3832C26.5681 52.1743 27.8722 53.6315 29.4752 53.6315C31.0782 53.6315 32.3823 52.1743 32.3823 50.3832C32.3823 48.8749 31.4574 47.6036 30.2081 47.2397V41.3851L30.6271 41.2095C30.6468 41.2299 30.6674 41.2495 30.6895 41.2677L32.5034 42.7714C34.7361 44.6221 37.3856 45.6003 40.1656 45.6003C42.9455 45.6003 45.5952 44.6221 47.8278 42.7714L49.6451 41.265C49.6661 41.2476 49.6858 41.2291 49.7047 41.2099L50.7189 41.6348V46.5553C48.8898 46.6926 47.439 48.398 47.439 50.4761V56.9617C47.439 57.1789 47.5162 57.3872 47.6537 57.5408C47.7911 57.6944 47.9776 57.7807 48.1719 57.7807H49.2881C49.6929 57.7807 50.021 57.414 50.021 56.9617C50.021 56.5095 49.6929 56.1428 49.2881 56.1428H48.9048V50.4761C48.9048 49.2117 49.8254 48.183 50.9569 48.183H51.8633C52.9948 48.183 53.9154 49.2117 53.9154 50.4761V56.1428H53.536C53.3416 56.1428 53.1552 56.2291 53.0177 56.3827C52.8803 56.5363 52.8031 56.7446 52.8031 56.9617C52.8031 57.1789 52.8803 57.3872 53.0177 57.5408C53.1552 57.6944 53.3416 57.7807 53.536 57.7807H54.6483C54.8427 57.7807 55.0291 57.6944 55.1665 57.5408C55.304 57.3872 55.3812 57.1789 55.3812 56.9617V50.4761C55.3812 48.4298 53.9743 46.7445 52.1847 46.5624V42.2491L54.4189 43.1853C57.0784 44.2997 58.8653 47.1807 58.8653 50.3545V59.0262C58.8653 59.0355 58.862 59.0444 58.8561 59.051C58.8502 59.0575 58.8423 59.0613 58.8339 59.0613H21.4973C21.4889 59.0613 21.4809 59.0576 21.475 59.051C21.4691 59.0444 21.4658 59.0355 21.4658 59.0262V58.6651C21.4658 58.4479 21.3886 58.2396 21.2511 58.086C21.1137 57.9324 20.9273 57.8462 20.7329 57.8462C20.5385 57.8462 20.3521 57.9324 20.2147 58.086C20.0772 58.2396 20 58.4479 20 58.6651V59.0262C20 59.9486 20.6717 60.6991 21.4973 60.6991H58.8338C59.6594 60.6991 60.331 59.9486 60.331 59.0262V50.3544C60.331 46.5018 58.1619 43.0045 54.9336 41.6516ZM30.9165 50.3832C30.9165 51.2712 30.27 51.9937 29.4752 51.9937C28.6804 51.9937 28.0339 51.2712 28.0339 50.3832C28.0339 49.4952 28.6804 48.7728 29.4752 48.7728C30.27 48.7728 30.9165 49.4952 30.9165 50.3832ZM51.2074 22.2812C51.2074 23.3338 50.5246 24.2099 49.6282 24.3901V20.1722C50.5246 20.3524 51.2074 21.2285 51.2074 22.2812ZM29.0141 22.2812C29.0141 21.1859 29.753 20.2815 30.7028 20.1535V24.4089C29.753 24.2808 29.0141 23.3763 29.0141 22.2812ZM32.1687 24.7572V20.1459H36.1843C36.3786 20.1459 36.565 20.0596 36.7025 19.906C36.8399 19.7525 36.9172 19.5442 36.9172 19.327C36.9172 19.1098 36.8399 18.9015 36.7025 18.7479C36.565 18.5943 36.3786 18.5081 36.1843 18.5081H32.1687V10.7975C32.1687 9.89588 32.5966 9.04399 33.2854 8.57437L35.0678 7.35922C35.7596 6.88737 36.5545 6.63776 37.365 6.63782H42.9661C43.7767 6.63777 44.5715 6.88738 45.2634 7.35922L47.0457 8.57437C47.7345 9.04399 48.1624 9.89588 48.1624 10.7975V18.5081H39.1158C38.9215 18.5081 38.7351 18.5943 38.5976 18.7479C38.4602 18.9015 38.3829 19.1098 38.3829 19.327C38.3829 19.5442 38.4602 19.7525 38.5976 19.906C38.7351 20.0596 38.9215 20.1459 39.1158 20.1459H48.1624V24.7572C48.1624 29.6842 44.5751 33.6926 40.1656 33.6926C35.756 33.6926 32.1687 29.6842 32.1687 24.7572ZM46.9543 41.4561C44.9762 43.0959 42.6286 43.9626 40.1656 43.9626C37.7024 43.9626 35.3549 43.0959 33.3768 41.4561L32.256 40.5271L35.0455 39.3583C35.8539 39.0196 36.3971 38.1439 36.3971 37.1792V34.4548C37.5525 35.0176 38.8268 35.3305 40.1656 35.3305C41.5042 35.3305 42.7786 35.0176 43.9339 34.4548V37.1792C43.9339 38.1439 44.4771 39.0196 45.2854 39.3583L48.075 40.5271L46.9543 41.4561Z" fill="#009B97"/>
</svg>

<svg width="82" height="65" fill="none" xmlns="http://www.w3.org/2000/svg"><path d="M39.675 17.208h1.266c.93 0 1.69-.83 1.716-1.861.924-.03 1.666-.88 1.666-1.918v-1.415c0-1.038-.742-1.887-1.666-1.918-.027-1.031-.786-1.86-1.716-1.86h-1.266c-.93 0-1.69.829-1.716 1.86-.924.03-1.666.88-1.666 1.918v1.415c0 1.039.742 1.887 1.666 1.918.027 1.031.786 1.861 1.716 1.861zm-1.916-3.779v-1.415c0-.074.026-.146.073-.198a.24.24 0 01.178-.083h.629c.432 0 .784-.393.784-.877v-.702c0-.074.027-.146.074-.198a.239.239 0 01.178-.083h1.266c.067 0 .13.03.178.083a.298.298 0 01.073.198v.702c0 .484.352.877.785.877h.629c.066 0 .13.03.178.083a.3.3 0 01.073.198v1.415a.299.299 0 01-.073.199.24.24 0 01-.178.082h-.629c-.432 0-.785.393-.785.877v.702a.298.298 0 01-.073.199.24.24 0 01-.178.082h-1.266a.239.239 0 01-.178-.082.299.299 0 01-.074-.199v-.702c0-.483-.352-.877-.785-.877h-.628a.239.239 0 01-.178-.082.299.299 0 01-.073-.199z" fill="#009B97"/><path d="M54.934 41.652L45.8 37.825a.635.635 0 01-.29-.254.75.75 0 01-.11-.392v-3.618c2.243-1.67 3.814-4.381 4.157-7.51 1.741-.155 3.116-1.786 3.116-3.77 0-1.957-1.337-3.572-3.045-3.763v-7.72c0-1.47-.697-2.857-1.819-3.622l-1.782-1.215A5.422 5.422 0 0042.967 5h-5.602c-1.08 0-2.139.332-3.06.961l-1.783 1.215c-1.122.765-1.82 2.153-1.82 3.621v7.711c-1.759.133-3.154 1.774-3.154 3.773 0 2.026 1.434 3.685 3.227 3.778.345 3.126 1.916 5.833 4.156 7.502v3.618a.75.75 0 01-.11.392.635.635 0 01-.29.254l-9.133 3.827C22.169 43.004 20 46.502 20 50.354v5.035a.87.87 0 00.215.58c.137.153.323.24.518.24a.7.7 0 00.518-.24.87.87 0 00.215-.58v-5.035c0-3.173 1.787-6.054 4.446-7.169L28.742 42v5.24c-1.249.365-2.174 1.636-2.174 3.144 0 1.791 1.304 3.248 2.907 3.248s2.907-1.457 2.907-3.248c0-1.508-.925-2.78-2.174-3.143v-5.855l.42-.175c.019.02.04.04.061.058l1.814 1.503c2.233 1.851 4.883 2.83 7.663 2.83 2.78 0 5.43-.979 7.662-2.83l1.817-1.506a.8.8 0 00.06-.055l1.014.425v4.92c-1.83.138-3.28 1.843-3.28 3.921v6.486a.87.87 0 00.215.579c.137.153.324.24.518.24h1.116c.405 0 .733-.367.733-.82 0-.451-.328-.818-.733-.818h-.383v-5.667c0-1.264.92-2.293 2.052-2.293h.906c1.132 0 2.052 1.029 2.052 2.293v5.667h-.379a.696.696 0 00-.518.24.87.87 0 00-.215.579.87.87 0 00.215.579c.137.153.324.24.518.24h1.112a.696.696 0 00.518-.24.87.87 0 00.215-.58v-6.485c0-2.046-1.407-3.731-3.196-3.914V42.25l2.234.936c2.66 1.115 4.446 3.996 4.446 7.17v8.671c0 .01-.003.018-.009.025a.03.03 0 01-.022.01H21.497a.03.03 0 01-.022-.01.037.037 0 01-.01-.025v-.36a.87.87 0 00-.214-.58.696.696 0 00-.518-.24.696.696 0 00-.518.24.87.87 0 00-.215.58v.36c0 .923.672 1.673 1.497 1.673h37.337c.825 0 1.497-.75 1.497-1.673v-8.672c0-3.852-2.17-7.35-5.397-8.702zm-24.017 8.731c0 .888-.647 1.61-1.442 1.61-.795 0-1.441-.722-1.441-1.61 0-.888.646-1.61 1.441-1.61s1.441.722 1.441 1.61zm20.29-28.102c0 1.053-.682 1.929-1.579 2.11v-4.219c.897.18 1.58 1.056 1.58 2.11zm-22.193 0c0-1.095.739-2 1.689-2.127v4.255c-.95-.128-1.689-1.033-1.689-2.128zm3.155 2.476v-4.611h4.015a.696.696 0 00.519-.24.87.87 0 00.214-.579.87.87 0 00-.215-.58.696.696 0 00-.518-.239H32.17v-7.71c0-.902.428-1.754 1.116-2.224l1.783-1.215a4.069 4.069 0 012.297-.721h5.601c.81 0 1.605.25 2.297.721l1.783 1.215c.688.47 1.116 1.322 1.116 2.223v7.711h-9.046a.696.696 0 00-.518.24.87.87 0 00-.215.579.87.87 0 00.215.579c.137.154.324.24.518.24h9.046v4.611c0 4.927-3.587 8.936-7.996 8.936-4.41 0-7.997-4.009-7.997-8.936zm14.785 16.7c-1.978 1.639-4.325 2.506-6.788 2.506-2.464 0-4.811-.867-6.79-2.507l-1.12-.929 2.79-1.169c.808-.338 1.351-1.214 1.351-2.179v-2.724a8.57 8.57 0 003.769.876 8.57 8.57 0 003.768-.876v2.724c0 .965.543 1.84 1.351 2.18l2.79 1.168-1.12.93z" fill="#009B97"/></svg>
